packages/assets/static/images/icons/taxi.svg

<svg width="24" height="24" viewBox="0 0 24 24" xmlns="http://www.w3.org/2000/svg">
<path d="M22.5 11.25H21.435L18.8672 6.75563C18.736 6.52609 18.5464 6.33531 18.3178 6.20261C18.0891 6.06992 17.8294 6.00002 17.565 6.00001H15.5081L14.3831 3.19313C14.2727 2.91446 14.0809 2.67548 13.8328 2.50727C13.5846 2.33907 13.2916 2.24943 12.9919 2.25001H11.0081C10.708 2.24905 10.4146 2.33851 10.1661 2.50674C9.91763 2.67497 9.72558 2.91416 9.615 3.19313L8.49188 6.00001H6.435C6.17061 6.00002 5.91092 6.06992 5.68224 6.20261C5.45356 6.33531 5.26402 6.52609 5.13281 6.75563L2.565 11.25H1.5C1.30109 11.25 1.11032 11.329 0.96967 11.4697C0.829018 11.6103 0.75 11.8011 0.75 12C0.75 12.1989 0.829018 12.3897 0.96967 12.5303C1.11032 12.671 1.30109 12.75 1.5 12.75H2.25V20.25C2.25 20.6478 2.40804 21.0294 2.68934 21.3107C2.97064 21.592 3.35218 21.75 3.75 21.75H6C6.39782 21.75 6.77936 21.592 7.06066 21.3107C7.34196 21.0294 7.5 20.6478 7.5 20.25V18.75H16.5V20.25C16.5 20.6478 16.658 21.0294 16.9393 21.3107C17.2206 21.592 17.6022 21.75 18 21.75H20.25C20.6478 21.75 21.0294 21.592 21.3107 21.3107C21.592 21.0294 21.75 20.6478 21.75 20.25V12.75H22.5C22.6989 12.75 22.8897 12.671 23.0303 12.5303C23.171 12.3897 23.25 12.1989 23.25 12C23.25 11.8011 23.171 11.6103 23.0303 11.4697C22.8897 11.329 22.6989 11.25 22.5 11.25ZM11.0081 3.75001H12.9919L13.8919 6.00001H10.1081L11.0081 3.75001ZM6.435 7.50001H17.565L19.7072 11.25H4.29281L6.435 7.50001ZM6 20.25H3.75V18.75H6V20.25ZM18 20.25V18.75H20.25V20.25H18ZM20.25 17.25H3.75V12.75H20.25V17.25ZM5.25 15C5.25 14.8011 5.32902 14.6103 5.46967 14.4697C5.61032 14.329 5.80109 14.25 6 14.25H7.5C7.69891 14.25 7.88968 14.329 8.03033 14.4697C8.17098 14.6103 8.25 14.8011 8.25 15C8.25 15.1989 8.17098 15.3897 8.03033 15.5303C7.88968 15.671 7.69891 15.75 7.5 15.75H6C5.80109 15.75 5.61032 15.671 5.46967 15.5303C5.32902 15.3897 5.25 15.1989 5.25 15ZM15.75 15C15.75 14.8011 15.829 14.6103 15.9697 14.4697C16.1103 14.329 16.3011 14.25 16.5 14.25H18C18.1989 14.25 18.3897 14.329 18.5303 14.4697C18.671 14.6103 18.75 14.8011 18.75 15C18.75 15.1989 18.671 15.3897 18.5303 15.5303C18.3897 15.671 18.1989 15.75 18 15.75H16.5C16.3011 15.75 16.1103 15.671 15.9697 15.5303C15.829 15.3897 15.75 15.1989 15.75 15Z"/>
</svg>

<svg viewBox="0 0 24 24" xmlns="http://www.w3.org/2000/svg" aria-hidden="true" fill="currentColor"><path d="M22.5 11.25h-1.065l-2.568-4.494A1.5 1.5 0 0 0 17.565 6h-2.057l-1.125-2.807a1.49 1.49 0 0 0-1.391-.943h-1.984a1.49 1.49 0 0 0-1.393.943L8.492 6H6.435a1.5 1.5 0 0 0-1.302.756L2.565 11.25H1.5a.75.75 0 1 0 0 1.5h.75v7.5a1.5 1.5 0 0 0 1.5 1.5H6a1.5 1.5 0 0 0 1.5-1.5v-1.5h9v1.5a1.5 1.5 0 0 0 1.5 1.5h2.25a1.5 1.5 0 0 0 1.5-1.5v-7.5h.75a.75.75 0 1 0 0-1.5m-11.492-7.5h1.984l.9 2.25h-3.784zM6.435 7.5h11.13l2.142 3.75H4.293zM6 20.25H3.75v-1.5H6zm12 0v-1.5h2.25v1.5zm2.25-3H3.75v-4.5h16.5zM5.25 15a.75.75 0 0 1 .75-.75h1.5a.75.75 0 1 1 0 1.5H6a.75.75 0 0 1-.75-.75m10.5 0a.75.75 0 0 1 .75-.75H18a.75.75 0 1 1 0 1.5h-1.5a.75.75 0 0 1-.75-.75"/></svg>
